packages/symbols/svgs/solid/star-solid.svg

<svg width="16" height="16" viewBox="0 0 16 16" fill="none" xmlns="http://www.w3.org/2000/svg">
<g clip-path="url(#clip0_214_1838)">
<path d="M15.144 5.43801L10.828 4.81101L8.89701 0.900006C8.559 0.217006 7.441 0.217006 7.103 0.900006L5.173 4.81101L0.856005 5.43801C0.0390049 5.55701 -0.291995 6.56501 0.302005 7.14501L3.426 10.189L2.689 14.488C2.55 15.302 3.406 15.927 4.14 15.542L8 13.513L11.861 15.543C12.589 15.924 13.452 15.309 13.312 14.489L12.575 10.19L15.699 7.14601C16.292 6.56501 15.961 5.55701 15.144 5.43801Z" fill="black"/>
</g>
<defs>
<clipPath id="clip0_214_1838">
<rect width="16" height="16" fill="white"/>
</clipPath>
</defs>
</svg>

<svg width="16" height="16" viewBox="0 0 16 16" xmlns="http://www.w3.org/2000/svg"><g clip-path="url(#a)"><path d="m15.144 5.438-4.316-.627L8.897.9C8.559.217 7.441.217 7.103.9l-1.93 3.911-4.317.627a1.002 1.002 0 0 0-.554 1.707l3.124 3.044-.737 4.299a1 1 0 0 0 1.451 1.054L8 13.513l3.861 2.03c.728.381 1.591-.234 1.451-1.054l-.737-4.299 3.124-3.044a1.003 1.003 0 0 0-.555-1.708Z"/></g><defs><clipPath id="a"><path fill="#fff" d="M0 0h16v16H0z"/></clipPath></defs></svg>
